;Sliced by ideaMaker 5.2.0.8540, 2025-04-18 11:58:10 UTC+0200
;Slicer Version: 5.2.0.8540
;Dimension: 300.000 300.000 300.000 0.400 0.400
;Plate Shape: 0
;Origin Center: 0
;Extruder Offset #1: 0.000 0.000
;Filament Diameter #1: 1.750
;Filament Diameter #2: 1.750
;Filament Compensation #1: 90.000
;Filament Compensation #2: 90.000
;Filament Density #1: 1240.000
;Filament Density #2: 1240.000
;Filament Type #1: PLA
;Filament Type #2: PLA
;Filament Name #1: [Raise3D] Premium PLA 1.75mm
;Filament Name #2: [Raise3D] Premium PLA 1.75mm
;Filament #1: PLA 1.75mm
;Filament #2: PLA 1.75mm
;Printer Type: RAISE3D Pro3
;Firmware: RepRapFirmware
;Bounding Box: 106.340 193.660 97.840 202.160 0.000 1.050
;Model Gap: 0.000
M221 T0 S90.00
M140 S55.00
M104 T0 S215.00
M109 T0 S215.00
T0
M190 S55.00
M572 D0 S0.03
M572 D1 S0.03
G21
G90
M82
M107
G28
G1 Z0 F500
G92 E0
G1 Z0.2 F400
G1 X60 Y-2 F800
G1 X140 Y-2 E12 F200
G1 Z5 E15 F200
G92 E0
G1 F9000.0
M117 Printing...
M1001
;TOTAL_NUM: 1
;PRINTING_TIME: 0
;REMAINING_TIME: 3605
;LAYER:0
;Z:0.300
;HEIGHT:0.300
M106 S0
M106 P2 S0
;PRINTING: NON-OBJECT
;PRINTING_ID: -1
G1 F2400 E-0.5000
M204 T1500.00
G0 F9000 X107.193 Y99.153
G0 F300 Z0.300
M204 P1000.00
;TYPE:SKIRT
;WIDTH:0.440
;FLOW:95.0
G1 F1500 E0.0000
G1 F900 X107.548 Y98.783 E0.0267
G1 X107.956 Y98.465 E0.0537
G1 X108.462 Y98.180 E0.0840
G1 X108.889 Y98.014 E0.1079
G1 X109.383 Y97.893 E0.1344
G1 X109.997 Y97.840 E0.1665
G1 X190.027 Y97.841 E4.3389
G1 X190.551 Y97.883 E4.3663
G1 X190.984 Y97.976 E4.3894
G1 X191.531 Y98.177 E4.4198
G1 X191.985 Y98.426 E4.4468
G1 X192.394 Y98.732 E4.4734
G1 X192.717 Y99.048 E4.4970
G1 X193.069 Y99.508 E4.5272
G1 X193.320 Y99.962 E4.5542
G1 X193.486 Y100.389 E4.5781
G1 X193.618 Y100.949 E4.6081
G1 X193.660 Y101.497 E4.6367
G1 X193.659 Y198.527 E9.6954
G1 X193.617 Y199.051 E9.7228
G1 X193.507 Y199.544 E9.7492
G1 X193.323 Y200.031 E9.7763
G1 X193.108 Y200.432 E9.8000
G1 X192.807 Y200.847 E9.8268
G1 X192.452 Y201.217 E9.8535
G1 X192.044 Y201.535 E9.8805
G1 X191.538 Y201.820 E9.9107
G1 X191.111 Y201.986 E9.9346
G1 X190.617 Y202.107 E9.9611
G1 X190.003 Y202.160 E9.9933
G1 X110.004 Y202.160 E14.1640
G1 X109.449 Y202.117 E14.1931
G1 X108.956 Y202.007 E14.2194
G1 X108.469 Y201.823 E14.2465
G1 X108.068 Y201.608 E14.2703
G1 X107.653 Y201.307 E14.2970
G1 X107.282 Y200.951 E14.3238
G1 X106.965 Y200.544 E14.3507
G1 X106.680 Y200.038 E14.3810
G1 X106.514 Y199.611 E14.4048
G1 X106.393 Y199.117 E14.4314
G1 X106.340 Y198.503 E14.4635
G1 X106.341 Y101.473 E19.5222
G1 X106.383 Y100.949 E19.5496
G1 X106.493 Y100.456 E19.5759
G1 X106.677 Y99.969 E19.6031
G1 X106.893 Y99.567 E19.6269
G1 X107.193 Y99.153 E19.6535
G0 F9000 X107.547 Y99.414
G1 F900 X107.863 Y99.091 E19.6771
G1 X108.224 Y98.814 E19.7008
G1 X108.621 Y98.590 E19.7246
G1 X109.048 Y98.424 E19.7484
G1 X109.484 Y98.321 E19.7718
G1 X109.997 Y98.280 E19.7986
G1 X189.996 Y98.280 E23.9694
G1 X190.459 Y98.313 E23.9936
G1 X190.892 Y98.406 E24.0167
G1 X191.323 Y98.565 E24.0406
G1 X191.724 Y98.780 E24.0644
G1 X192.086 Y99.047 E24.0878
G1 X192.409 Y99.363 E24.1114
G1 X192.686 Y99.724 E24.1351
G1 X192.910 Y100.121 E24.1589
G1 X193.076 Y100.548 E24.1827
G1 X193.179 Y100.984 E24.2061
G1 X193.220 Y101.497 E24.2329
G1 X193.220 Y198.496 E29.2900
G1 X193.187 Y198.959 E29.3142
G1 X193.094 Y199.392 E29.3373
G1 X192.935 Y199.823 E29.3612
G1 X192.720 Y200.224 E29.3850
G1 X192.453 Y200.586 E29.4084
G1 X192.137 Y200.909 E29.4320
G1 X191.776 Y201.186 E29.4557
G1 X191.379 Y201.410 E29.4795
G1 X190.952 Y201.576 E29.5033
G1 X190.516 Y201.679 E29.5267
G1 X190.003 Y201.720 E29.5535
G1 X110.004 Y201.720 E33.7243
G1 X109.541 Y201.687 E33.7485
G1 X109.108 Y201.594 E33.7716
G1 X108.677 Y201.435 E33.7955
G1 X108.276 Y201.220 E33.8193
G1 X107.914 Y200.953 E33.8427
G1 X107.590 Y200.636 E33.8663
G1 X107.314 Y200.276 E33.8900
G1 X107.090 Y199.879 E33.9138
G1 X106.924 Y199.452 E33.9376
G1 X106.821 Y199.016 E33.9610
G1 X106.780 Y198.503 E33.9878
G1 X106.780 Y101.504 E39.0449
G1 X106.813 Y101.041 E39.0691
G1 X106.906 Y100.608 E39.0922
G1 X107.065 Y100.177 E39.1161
G1 X107.281 Y99.775 E39.1399
G1 X107.547 Y99.414 E39.1633
;PRINTING: top.stl
;PRINTING_ID: 0
G1 F2400 E38.6633
G0 F9000 X110.660 Y106.099
;TYPE:WALL-INNER
;WIDTH:0.440
G1 F1500 E39.1633
G1 F900 X111.630 Y106.572 E39.2196
G1 X112.065 Y106.601 E39.2423
G1 X112.500 Y106.688 E39.2654
G1 X113.431 Y106.503 E39.3149
G1 X114.219 Y105.978 E39.3643
G1 X114.751 Y105.182 E39.4142
G1 X114.833 Y104.771 E39.4360
G1 X114.981 Y104.352 E39.4592
G1 X114.920 Y103.350 E39.5115
G1 X114.456 Y102.418 E39.5658
G1 X114.321 Y102.302 E39.5751
G1 X114.374 Y102.160 E39.5830
G1 X185.056 Y102.160 E43.2680
G1 X185.117 Y102.275 E43.2748
G1 X184.849 Y102.679 E43.3001
G1 X184.569 Y103.218 E43.3318
G1 X184.476 Y104.330 E43.3899
G1 X184.808 Y105.348 E43.4458
G1 X185.493 Y106.140 E43.5004
G1 X186.380 Y106.572 E43.5518
G1 X186.815 Y106.601 E43.5745
G1 X187.250 Y106.688 E43.5976
G1 X188.181 Y106.503 E43.6471
G1 X188.969 Y105.978 E43.6965
G1 X189.185 Y105.654 E43.7168
G1 X189.340 Y105.701 E43.7252
G1 X189.340 Y195.065 E48.3843
G1 X189.172 Y195.104 E48.3933
G1 X188.706 Y194.168 E48.4478
G1 X187.889 Y193.466 E48.5039
G1 X186.826 Y193.126 E48.5621
G1 X186.234 Y193.178 E48.5931
G1 X185.632 Y193.296 E48.6251
G1 X184.680 Y193.932 E48.6848
G1 X184.349 Y194.429 E48.7159
G1 X184.069 Y194.968 E48.7476
G1 X183.976 Y196.080 E48.8057
G1 X184.308 Y197.098 E48.8616
G1 X184.840 Y197.713 E48.9040
G1 X184.782 Y197.840 E48.9112
G1 X114.285 Y197.840 E52.5866
G1 X114.224 Y197.725 E52.5934
G1 X114.752 Y196.931 E52.6431
G1 X114.833 Y196.521 E52.6649
G1 X114.981 Y196.102 E52.6881
G1 X114.920 Y195.100 E52.7404
G1 X114.456 Y194.168 E52.7947
G1 X113.639 Y193.466 E52.8508
G1 X112.577 Y193.126 E52.9090
G1 X111.983 Y193.178 E52.9401
G1 X111.382 Y193.296 E52.9720
G1 X110.775 Y193.701 E53.0100
G1 X110.660 Y193.640 E53.0168
G1 X110.660 Y106.099 E57.5808
G1 F2400 E57.0808
G0 F9000 X110.824 Y105.831
G0 X110.857 Y105.778
G0 X113.204 Y101.974
G0 X112.815 Y101.720
M204 P500.00
;TYPE:WALL-OUTER
;WIDTH:0.440
G1 F1500 E57.5808
G1 F900 X186.506 Y101.720 E61.4227
G1 X186.525 Y101.917 E61.4330
G1 X186.303 Y101.961 E61.4448
G1 X185.497 Y102.499 E61.4953
G1 X185.228 Y102.903 E61.5206
G1 X185.000 Y103.342 E61.5464
G1 X184.922 Y104.278 E61.5954
G1 X185.199 Y105.127 E61.6420
G1 X185.767 Y105.784 E61.6872
G1 X186.495 Y106.139 E61.7295
G1 X186.873 Y106.164 E61.7492
G1 X187.250 Y106.239 E61.7693
G1 X188.010 Y106.088 E61.8097
G1 X188.652 Y105.660 E61.8499
G1 X189.087 Y105.010 E61.8907
G1 X189.158 Y104.654 E61.9096
G1 X189.286 Y104.290 E61.9297
G1 X189.236 Y103.466 E61.9727
G1 X188.852 Y102.694 E62.0177
G1 X188.170 Y102.108 E62.0646
G1 X187.536 Y101.904 E62.0993
G1 X187.565 Y101.720 E62.1090
G1 X189.780 Y101.720 E62.2245
G1 X189.780 Y198.280 E67.2587
G1 X110.220 Y198.280 E71.4065
G1 X110.220 Y196.769 E71.4853
G1 X110.404 Y196.740 E71.4950
G1 X110.449 Y196.877 E71.5026
G1 X111.017 Y197.534 E71.5478
G1 X111.745 Y197.889 E71.5901
G1 X112.123 Y197.914 E71.6098
G1 X112.500 Y197.989 E71.6298
G1 X113.261 Y197.838 E71.6703
G1 X113.922 Y197.384 E71.7121
G1 X114.337 Y196.760 E71.7512
G1 X114.408 Y196.404 E71.7701
G1 X114.536 Y196.040 E71.7902
G1 X114.486 Y195.216 E71.8333
G1 X114.102 Y194.444 E71.8782
G1 X113.420 Y193.858 E71.9251
G1 X112.527 Y193.572 E71.9740
G1 X112.045 Y193.614 E71.9992
G1 X111.553 Y193.711 E72.0253
G1 X110.747 Y194.249 E72.0759
G1 X110.478 Y194.653 E72.1012
G1 X110.386 Y194.830 E72.1116
G1 X110.220 Y194.790 E72.1205
G1 X110.220 Y105.019 E76.8007
G1 X110.404 Y104.990 E76.8104
G1 X110.449 Y105.127 E76.8179
G1 X111.017 Y105.784 E76.8632
G1 X111.745 Y106.139 E76.9054
G1 X112.123 Y106.164 E76.9252
G1 X112.500 Y106.239 E76.9452
G1 X113.260 Y106.088 E76.9856
G1 X113.902 Y105.660 E77.0259
G1 X114.337 Y105.010 E77.0666
G1 X114.408 Y104.654 E77.0856
G1 X114.536 Y104.290 E77.1057
G1 X114.486 Y103.466 E77.1487
G1 X114.102 Y102.694 E77.1937
G1 X113.420 Y102.108 E77.2405
G1 X112.786 Y101.904 E77.2753
G1 X112.815 Y101.720 E77.2850
G1 F2400 E76.7850
G0 F9000 X114.259 Y102.572
G0 X188.509 Y194.322
G0 X189.159 Y196.307
M204 P1000.00
;TYPE:WALL-INNER
;WIDTH:0.440
G1 F1500 E77.2850
G1 F900 X189.340 Y196.337 E77.2945
G1 X189.340 Y197.840 E77.3729
G1 X188.532 Y197.840 E77.4150
G1 X188.471 Y197.725 E77.4218
G1 X189.001 Y196.932 E77.4715
G1 X189.083 Y196.521 E77.4934
G1 X189.159 Y196.307 E77.5052
G1 F2400 E77.0052
G0 F9000 X188.509 Y194.322
G0 X186.798 Y193.374
G0 X186.192 Y193.460
G0 X184.950 Y194.160
G0 X184.997 Y194.249
M204 P500.00
;TYPE:WALL-OUTER
;WIDTH:0.440
G1 F1500 E77.5052
G1 F900 X184.728 Y194.653 E77.5305
G1 X184.500 Y195.092 E77.5563
G1 X184.422 Y196.028 E77.6053
G1 X184.699 Y196.877 E77.6519
G1 X185.267 Y197.534 E77.6971
G1 X185.995 Y197.889 E77.7394
G1 X186.373 Y197.914 E77.7591
G1 X186.750 Y197.989 E77.7791
G1 X187.510 Y197.838 E77.8195
G1 X188.152 Y197.410 E77.8598
G1 X188.587 Y196.760 E77.9005
G1 X188.658 Y196.404 E77.9195
G1 X188.786 Y196.040 E77.9396
G1 X188.736 Y195.216 E77.9826
G1 X188.352 Y194.444 E78.0276
G1 X187.670 Y193.858 E78.0745
G1 X186.777 Y193.572 E78.1233
G1 X186.612 Y193.587 E78.1320
G1 X186.295 Y193.614 E78.1486
G1 X185.803 Y193.711 E78.1747
G1 X184.997 Y194.249 E78.2252
G1 F2400 E77.7252
G0 F9000 X184.787 Y194.108
G0 X113.763 Y105.966
G0 X113.622 Y105.791
G0 X110.920 Y102.438
G0 X110.779 Y102.263
G0 X110.474 Y101.884
G0 X110.220 Y101.720
G1 F1500 E78.2252
G1 F900 X111.756 Y101.720 E78.3053
G1 X111.775 Y101.917 E78.3156
G1 X111.553 Y101.961 E78.3274
G1 X110.747 Y102.499 E78.3780
G1 X110.478 Y102.903 E78.4033
G1 X110.386 Y103.080 E78.4137
G1 X110.220 Y103.040 E78.4226
G1 X110.220 Y101.720 E78.4914
G1 F2400 E77.9914
G0 F9000 X110.320 Y101.730
G0 X110.257 Y102.893
G0 X110.237 Y103.280
;TYPE:WALL-OUTER
;WIDTH:0.455
G1 F1500 E78.4914
G1 F900 X110.217 Y103.757 E78.5171
G1 X110.198 Y104.235 E78.5429
;WIDTH:0.404
G1 X110.202 Y104.315 E78.5467
;WIDTH:0.476
G1 X110.275 Y104.777 E78.5731
G1 F2400 E78.0731
G0 F9000 X110.275 Y103.970
G0 X110.484 Y103.340
;WIDTH:0.156
G1 F1500 E78.5731
G1 F900 X110.000 Y103.630 E78.5836
G0 F9000 X110.474 Y102.772
G0 X111.065 Y102.105
G0 X111.215 Y101.932
G0 X111.268 Y101.873
G0 X111.343 Y101.796
G0 X111.997 Y101.828
;WIDTH:0.564
G1 F900 X112.572 Y101.781 E78.6221
G1 F2400 E78.1221
G0 F9000 X113.204 Y101.974
G0 X113.356 Y101.939
G0 X113.489 Y101.860
G0 X186.093 Y101.796
G0 X186.742 Y101.781
;WIDTH:0.562
G1 F1500 E78.6221
G1 F900 X187.322 Y101.781 E78.6607
G1 F2400 E78.1607
G0 F9000 X186.377 Y101.759
G0 X185.054 Y102.804
G0 X111.476 Y193.527
G0 X110.061 Y194.579
G0 X110.284 Y194.735
G0 X110.484 Y195.090
;WIDTH:0.156
G1 F1500 E78.6607
G1 F900 X110.000 Y195.380 E78.6712
G0 F9000 X110.237 Y195.030
;WIDTH:0.455
G1 F900 X110.217 Y195.507 E78.6969
G1 X110.198 Y195.985 E78.7227
;WIDTH:0.404
G1 X110.202 Y196.065 E78.7265
;WIDTH:0.476
G1 X110.275 Y196.527 E78.7529
G1 F2400 E78.2529
G0 F9000 X110.440 Y197.272
M204 P1000.00
;TYPE:GAP-FILL
;WIDTH:0.400
G1 F1500 E78.7529
G1 F900 X111.226 Y198.059 E78.8056
G0 F900 X110.660 Y198.059
G1 F900 X110.440 Y197.838 E78.8204
G1 F2400 E78.3204
G0 F9000 X112.556 Y198.235
G0 X113.758 Y197.762
G1 F1500 E78.8204
G1 F900 X114.054 Y198.059 E78.8403
G1 F2400 E78.3403
G0 F9000 X114.810 Y197.118
;TYPE:SOLID-FILL
;WIDTH:0.400
G1 F1500 E78.8403
G1 F900 X115.377 Y197.685 E78.8783
G0 F900 X115.943 Y197.685
G1 F900 X114.954 Y196.695 E78.9446
G0 F900 X115.086 Y196.262
G1 F900 X116.509 Y197.685 E79.0400
G0 F900 X117.074 Y197.685
G1 F900 X115.112 Y195.722 E79.1715
G0 F900 X115.075 Y195.120
G1 F900 X117.640 Y197.685 E79.3435
G0 F900 X118.206 Y197.685
G1 F900 X110.813 Y190.292 E79.8390
G0 F900 X110.813 Y190.858
G1 F900 X113.079 Y193.124 E79.9909
G0 F900 X112.378 Y192.988
G1 F900 X110.813 Y191.423 E80.0958
G0 F900 X110.813 Y191.989
G1 F900 X111.867 Y193.042 E80.1664
G0 F900 X111.394 Y193.136
G1 F900 X110.813 Y192.555 E80.2053
G1 F2400 E79.7053
G0 F9000 X110.813 Y189.726
G1 F1500 E80.2053
G1 F900 X118.772 Y197.685 E80.7388
G0 F900 X119.337 Y197.685
G1 F900 X110.813 Y189.160 E81.3102
G0 F900 X110.813 Y188.595
G1 F900 X119.903 Y197.685 E81.9195
G0 F900 X120.469 Y197.685
G1 F900 X110.813 Y188.029 E82.5667
G0 F900 X110.813 Y187.463
G1 F900 X121.034 Y197.685 E83.2518
G0 F900 X121.600 Y197.685
G1 F900 X110.813 Y186.898 E83.9748
G0 F900 X110.813 Y186.332
G1 F900 X122.166 Y197.685 E84.7358
G0 F900 X122.731 Y197.685
G1 F900 X110.813 Y185.766 E85.5347
G0 F900 X110.813 Y185.201
G1 F900 X123.297 Y197.685 E86.3714
G0 F900 X123.863 Y197.685
G1 F900 X110.813 Y184.635 E87.2461
G0 F900 X110.813 Y184.069
G1 F900 X124.428 Y197.685 E88.1588
G0 F900 X124.994 Y197.685
G1 F900 X110.813 Y183.504 E89.1093
G0 F900 X110.813 Y182.938
G1 F900 X125.560 Y197.685 E90.0977
G0 F900 X126.125 Y197.685
G1 F900 X110.813 Y182.372 E91.1241
G0 F900 X110.813 Y181.807
G1 F900 X126.691 Y197.685 E92.1884
G0 F900 X127.257 Y197.685
G1 F900 X110.813 Y181.241 E93.2906
G0 F900 X110.813 Y180.675
G1 F900 X127.822 Y197.685 E94.4307
G0 F900 X128.388 Y197.685
G1 F900 X110.813 Y180.109 E95.6087
G0 F900 X110.813 Y179.544
G1 F900 X128.954 Y197.685 E96.8247
G0 F900 X129.520 Y197.685
G1 F900 X110.813 Y178.978 E98.0785
G0 F900 X110.813 Y178.412
G1 F900 X130.085 Y197.685 E99.3703
G0 F900 X130.651 Y197.685
G1 F900 X110.813 Y177.847 E100.7000
G0 F900 X110.813 Y177.281
G1 F900 X131.217 Y197.685 E102.0677
G0 F900 X131.782 Y197.685
G1 F900 X110.813 Y176.715 E103.4732
G0 F900 X110.813 Y176.150
G1 F900 X132.348 Y197.685 E104.9166
G0 F900 X132.914 Y197.685
G1 F900 X110.813 Y175.584 E106.3980
G0 F900 X110.813 Y175.018
G1 F900 X133.479 Y197.685 E107.9173
G0 F900 X134.045 Y197.685
G1 F900 X110.813 Y174.453 E109.4745
G0 F900 X110.813 Y173.887
G1 F900 X134.611 Y197.685 E111.0696
G0 F900 X135.176 Y197.685
G1 F900 X110.813 Y173.321 E112.7026
G0 F900 X110.813 Y172.756
G1 F900 X135.742 Y197.685 E114.3736
G0 F900 X136.308 Y197.685
G1 F900 X110.813 Y172.190 E116.0824
G0 F900 X110.813 Y171.624
G1 F900 X136.873 Y197.685 E117.8292
G0 F900 X137.439 Y197.685
G1 F900 X110.813 Y171.059 E119.6139
G0 F900 X110.813 Y170.493
G1 F900 X138.005 Y197.685 E121.4365
G0 F900 X138.571 Y197.685
G1 F900 X110.813 Y169.927 E123.2971
G0 F900 X110.813 Y169.361
G1 F900 X139.136 Y197.685 E125.1955
G0 F900 X139.702 Y197.685
G1 F900 X110.813 Y168.796 E127.1319
G0 F900 X110.813 Y168.230
G1 F900 X140.268 Y197.685 E129.1062
G0 F900 X140.833 Y197.685
G1 F900 X110.813 Y167.664 E131.1184
G0 F900 X110.813 Y167.099
G1 F900 X141.399 Y197.685 E133.1685
G0 F900 X141.965 Y197.685
G1 F900 X110.813 Y166.533 E135.2565
G0 F900 X110.813 Y165.967
G1 F900 X142.530 Y197.685 E137.3825
G0 F900 X143.096 Y197.685
G1 F900 X110.813 Y165.402 E139.5463
G0 F900 X110.813 Y164.836
G1 F900 X143.662 Y197.685 E141.7481
G0 F900 X144.227 Y197.685
G1 F900 X110.813 Y164.270 E143.9878
G0 F900 X110.813 Y163.705
G1 F900 X144.793 Y197.685 E146.2654
G0 F900 X145.359 Y197.685
G1 F900 X110.813 Y163.139 E148.5810
G0 F900 X110.813 Y162.573
G1 F900 X145.924 Y197.685 E150.9344
G0 F900 X146.490 Y197.685
G1 F900 X110.813 Y162.008 E153.3257
G0 F900 X110.813 Y161.442
G1 F900 X147.056 Y197.685 E155.7550
G0 F900 X147.621 Y197.685
G1 F900 X110.813 Y160.876 E158.2222
G0 F900 X110.813 Y160.311
G1 F900 X148.187 Y197.685 E160.7273
G0 F900 X148.753 Y197.685
G1 F900 X110.813 Y159.745 E163.2703
G0 F900 X110.813 Y159.179
G1 F900 X149.319 Y197.685 E165.8513
G0 F900 X149.884 Y197.685
G1 F900 X110.813 Y158.613 E168.4702
G0 F900 X110.813 Y158.048
G1 F900 X150.450 Y197.685 E171.1269
G0 F900 X151.016 Y197.685
G1 F900 X110.813 Y157.482 E173.8216
G0 F900 X110.813 Y156.916
