;Sliced by ideaMaker 5.2.0.8540, 2025-04-23 14:01:23 UTC+0200
;Slicer Version: 5.2.0.8540
;Dimension: 300.000 300.000 300.000 0.400 0.400
;Plate Shape: 0
;Origin Center: 0
;Extruder Offset #1: 0.000 0.000
;Filament Diameter #1: 1.750
;Filament Diameter #2: 1.750
;Filament Compensation #1: 90.000
;Filament Compensation #2: 90.000
;Filament Density #1: 1240.000
;Filament Density #2: 1240.000
;Filament Type #1: PLA
;Filament Type #2: PLA
;Filament Name #1: [Raise3D] Premium PLA 1.75mm
;Filament Name #2: [Raise3D] Premium PLA 1.75mm
;Filament #1: PLA 1.75mm
;Filament #2: PLA 1.75mm
;Printer Type: RAISE3D Pro3
;Firmware: RepRapFirmware
;Bounding Box: 132.740 167.260 132.743 167.252 0.000 30.050
;Model Gap: 0.000
M221 T0 S90.00
M140 S55.00
M104 T0 S215.00
M109 T0 S215.00
T0
M190 S55.00
M572 D0 S0.03
M572 D1 S0.03
G21
G90
M82
M107
G28
G1 Z0 F500
G92 E0
G1 Z0.2 F400
G1 X60 Y-2 F800
G1 X140 Y-2 E12 F200
G1 Z5 E15 F200
G92 E0
G1 F9000.0
M117 Printing...
M1001
;TOTAL_NUM: 1
;PRINTING_TIME: 0
;REMAINING_TIME: 2174
;LAYER:0
;Z:0.300
;HEIGHT:0.300
M106 S0
M106 P2 S0
;PRINTING: NON-OBJECT
;PRINTING_ID: -1
G1 F2400 E-0.5000
M204 T1500.00
G0 F9000 X138.686 Y136.717
G0 F300 Z0.300
G0 F9000 X138.177 Y137.445
M204 P1000.00
;TYPE:SKIRT
;WIDTH:0.440
;FLOW:95.0
G1 F1500 E0.0000
G1 F900 X138.402 Y137.074 E0.0226
G1 X138.686 Y136.717 E0.0464
G1 X139.061 Y136.359 E0.0734
G1 X139.568 Y136.004 E0.1057
G1 X142.966 Y134.040 E0.3103
G1 X143.461 Y133.802 E0.3390
G1 X143.955 Y133.648 E0.3659
G1 X144.400 Y133.570 E0.3895
G1 X144.767 Y133.554 E0.4086
G1 X145.151 Y133.438 E0.4296
G1 X146.497 Y133.103 E0.5019
G1 X146.816 Y133.041 E0.5188
G1 X148.139 Y132.845 E0.5885
G1 X148.468 Y132.812 E0.6058
G1 X149.840 Y132.743 E0.6774
G1 X150.182 Y132.744 E0.6952
G1 X151.841 Y132.842 E0.7819
G1 X153.063 Y133.023 E0.8463
G1 X154.839 Y133.437 E0.9413
G1 X155.250 Y133.560 E0.9637
G1 X155.494 Y133.565 E0.9764
G1 X155.947 Y133.630 E1.0003
G1 X156.446 Y133.772 E1.0273
G1 X157.024 Y134.039 E1.0605
G1 X160.432 Y136.007 E1.2657
G1 X160.880 Y136.315 E1.2941
G1 X161.263 Y136.668 E1.3212
G1 X161.587 Y137.061 E1.3478
G1 X161.828 Y137.451 E1.3717
G1 X162.330 Y137.927 E1.4077
G1 X163.254 Y138.949 E1.4796
G1 X163.447 Y139.185 E1.4955
G1 X164.277 Y140.307 E1.5682
G1 X165.145 Y141.727 E1.6550
G1 X165.297 Y142.012 E1.6718
G1 X165.885 Y143.258 E1.7437
G1 X166.020 Y143.588 E1.7622
G1 X166.452 Y144.794 E1.8290
G1 X166.568 Y145.177 E1.8499
G1 X166.894 Y146.479 E1.9199
G1 X166.974 Y146.910 E1.9427
G1 X167.104 Y147.412 E1.9698
G1 X167.165 Y148.207 E2.0113
G1 X167.205 Y148.385 E2.0208
G1 X167.260 Y149.008 E2.0535
G1 X167.260 Y150.997 E2.1571
G1 X167.226 Y151.486 E2.1827
G1 X167.177 Y151.732 E2.1958
G1 X167.152 Y152.196 E2.2200
G1 X167.086 Y152.701 E2.2466
G1 X166.967 Y153.138 E2.2702
G1 X166.889 Y153.547 E2.2919
G1 X166.551 Y154.887 E2.3639
G1 X166.001 Y156.465 E2.4511
G1 X165.876 Y156.765 E2.4680
G1 X165.290 Y157.999 E2.5392
G1 X165.130 Y158.299 E2.5569
G1 X164.440 Y159.450 E2.6269
G1 X164.245 Y159.741 E2.6452
G1 X163.457 Y160.803 E2.7141
G1 X162.303 Y162.104 E2.8048
G1 X161.805 Y162.573 E2.8404
G1 X161.597 Y162.918 E2.8614
G1 X161.313 Y163.273 E2.8852
G1 X160.944 Y163.627 E2.9118
G1 X160.425 Y163.990 E2.9448
G1 X157.037 Y165.947 E3.1488
G1 X156.531 Y166.189 E3.1781
G1 X156.046 Y166.340 E3.2045
G1 X155.597 Y166.419 E3.2283
G1 X155.250 Y166.435 E3.2464
G1 X154.838 Y166.566 E3.2690
G1 X153.529 Y166.893 E3.3393
G1 X153.206 Y166.957 E3.3565
G1 X151.880 Y167.155 E3.4264
G1 X151.489 Y167.192 E3.4468
G1 X149.995 Y167.252 E3.5248
G1 X148.451 Y167.187 E3.6054
G1 X146.942 Y166.979 E3.6848
G1 X145.167 Y166.565 E3.7798
G1 X144.747 Y166.440 E3.8026
G1 X144.497 Y166.434 E3.8157
G1 X144.046 Y166.368 E3.8394
G1 X143.549 Y166.226 E3.8664
G1 X142.968 Y165.955 E3.8998
G1 X139.541 Y163.976 E4.1061
G1 X139.120 Y163.685 E4.1328
G1 X138.737 Y163.333 E4.1599
G1 X138.452 Y162.993 E4.1831
G1 X138.177 Y162.557 E4.2099
G1 X137.670 Y162.076 E4.2464
G1 X136.567 Y160.833 E4.3330
G1 X135.742 Y159.723 E4.4051
G1 X135.549 Y159.432 E4.4233
G1 X134.851 Y158.265 E4.4942
G1 X134.108 Y156.728 E4.5832
G1 X133.534 Y155.163 E4.6701
G1 X133.432 Y154.824 E4.6886
G1 X133.121 Y153.582 E4.7553
G1 X132.906 Y153.018 E4.7868
G1 X132.792 Y152.517 E4.8136
G1 X132.750 Y151.976 E4.8419
G1 X132.740 Y148.044 E5.0469
G1 X132.780 Y147.501 E5.0753
G1 X132.874 Y147.055 E5.0990
G1 X133.048 Y146.569 E5.1259
G1 X133.119 Y146.425 E5.1343
G1 X133.539 Y144.819 E5.2209
G1 X133.987 Y143.568 E5.2901
G1 X134.124 Y143.238 E5.3088
G1 X134.713 Y141.992 E5.3806
G1 X134.855 Y141.727 E5.3963
G1 X135.586 Y140.511 E5.4703
G1 X136.550 Y139.188 E5.5556
G1 X137.694 Y137.902 E5.6453
G1 X138.177 Y137.445 E5.6800
G0 F9000 X138.525 Y137.722
G1 F900 X138.746 Y137.348 E5.7027
G1 X139.030 Y136.991 E5.7264
G1 X139.362 Y136.680 E5.7502
G1 X139.788 Y136.385 E5.7772
G1 X143.186 Y134.421 E5.9818
G1 X143.596 Y134.221 E6.0056
G1 X144.031 Y134.081 E6.0294
G1 X144.476 Y134.003 E6.0530
G1 X144.838 Y133.992 E6.0718
G1 X145.257 Y133.865 E6.0947
G1 X146.582 Y133.535 E6.1658
G1 X146.881 Y133.476 E6.1817
G1 X148.183 Y133.283 E6.2504
G1 X148.512 Y133.250 E6.2676
G1 X149.840 Y133.183 E6.3369
G1 X150.160 Y133.183 E6.3536
G1 X151.489 Y133.250 E6.4230
G1 X151.798 Y133.280 E6.4392
G1 X152.998 Y133.458 E6.5024
G1 X154.713 Y133.859 E6.5942
G1 X155.183 Y133.999 E6.6198
G1 X155.432 Y134.001 E6.6328
G1 X155.885 Y134.066 E6.6566
G1 X156.323 Y134.194 E6.6804
G1 X156.804 Y134.420 E6.7081
G1 X160.212 Y136.388 E6.9133
G1 X160.585 Y136.641 E6.9368
G1 X160.926 Y136.950 E6.9608
G1 X161.213 Y137.293 E6.9841
G1 X161.484 Y137.731 E7.0110
G1 X162.004 Y138.222 E7.0483
G1 X162.914 Y139.228 E7.1190
G1 X163.094 Y139.447 E7.1338
G1 X163.902 Y140.537 E7.2045
G1 X164.757 Y141.935 E7.2899
G1 X164.899 Y142.200 E7.3056
G1 X165.478 Y143.426 E7.3763
G1 X165.606 Y143.736 E7.3938
G1 X166.038 Y144.942 E7.4606
G1 X166.141 Y145.284 E7.4792
G1 X166.461 Y146.559 E7.5477
G1 X166.543 Y147.000 E7.5711
G1 X166.678 Y147.522 E7.5992
G1 X166.729 Y148.279 E7.6388
G1 X166.767 Y148.425 E7.6466
G1 X166.820 Y149.008 E7.6772
G1 X166.820 Y150.997 E7.7809
G1 X166.787 Y151.454 E7.8047
G1 X166.740 Y151.673 E7.8164
G1 X166.715 Y152.143 E7.8410
G1 X166.661 Y152.585 E7.8642
G1 X166.540 Y153.029 E7.8882
G1 X166.462 Y153.440 E7.9100
G1 X166.135 Y154.742 E7.9800
G1 X165.594 Y156.297 E8.0658
G1 X165.479 Y156.576 E8.0815
G1 X164.901 Y157.793 E8.1518
G1 X164.753 Y158.073 E8.1683
G1 X164.074 Y159.206 E8.2372
G1 X163.892 Y159.479 E8.2543
G1 X163.104 Y160.541 E8.3232
G1 X162.001 Y161.784 E8.4098
G1 X161.456 Y162.297 E8.4489
G1 X161.253 Y162.643 E8.4698
G1 X160.969 Y162.998 E8.4935
G1 X160.642 Y163.307 E8.5169
G1 X160.205 Y163.609 E8.5446
G1 X156.817 Y165.566 E8.7486
G1 X156.397 Y165.770 E8.7730
G1 X155.970 Y165.907 E8.7963
G1 X155.521 Y165.986 E8.8201
G1 X155.176 Y165.997 E8.8381
G1 X154.731 Y166.139 E8.8625
G1 X153.422 Y166.466 E8.9328
G1 X153.121 Y166.525 E8.9488
G1 X151.815 Y166.720 E9.0176
G1 X151.471 Y166.752 E9.0356
G1 X150.013 Y166.812 E9.1117
G1 X148.511 Y166.751 E9.1901
G1 X147.002 Y166.543 E9.2695
G1 X145.293 Y166.143 E9.3610
G1 X144.814 Y166.000 E9.3871
G1 X144.561 Y165.999 E9.4003
G1 X144.110 Y165.933 E9.4240
G1 X143.674 Y165.804 E9.4477
G1 X143.188 Y165.574 E9.4758
G1 X139.788 Y163.612 E9.6804
G1 X139.415 Y163.359 E9.7039
G1 X139.074 Y163.050 E9.7279
G1 X138.789 Y162.710 E9.7510
G1 X138.520 Y162.275 E9.7777
G1 X137.999 Y161.784 E9.8150
G1 X136.896 Y160.541 E9.9017
G1 X136.108 Y159.479 E9.9706
G1 X135.926 Y159.206 E9.9877
G1 X135.247 Y158.073 E10.0566
G1 X134.521 Y156.576 E10.1433
G1 X133.955 Y155.036 E10.2289
G1 X133.859 Y154.717 E10.2462
G1 X133.542 Y153.452 E10.3142
G1 X133.334 Y152.917 E10.3442
G1 X133.231 Y152.482 E10.3675
G1 X133.190 Y151.975 E10.3940
G1 X133.180 Y148.043 E10.5990
G1 X133.211 Y147.592 E10.6225
G1 X133.305 Y147.146 E10.6463
G1 X133.461 Y146.720 E10.6700
G1 X133.533 Y146.583 E10.6780
G1 X133.953 Y144.967 E10.7651
G1 X134.394 Y143.736 E10.8332
G1 X134.522 Y143.426 E10.8507
G1 X135.101 Y142.200 E10.9214
G1 X135.243 Y141.935 E10.9371
G1 X135.942 Y140.770 E11.0079
G1 X136.906 Y139.447 E11.0933
G1 X137.996 Y138.222 E11.1788
G1 X138.525 Y137.722 E11.2167
;PRINTING: motor.stl
;PRINTING_ID: 0
G1 F2400 E10.7167
G0 F9000 X140.851 Y140.851
;TYPE:WALL-INNER
;WIDTH:0.440
G1 F1500 E11.2167
G1 F900 X141.792 Y139.997 E11.2830
G1 X142.380 Y139.557 E11.3212
G1 X142.299 Y139.415 E11.3298
G1 X144.561 Y138.109 E11.4659
G1 X144.615 Y138.203 E11.4716
G1 X146.244 Y137.619 E11.5618
G1 X147.476 Y137.310 E11.6280
G1 X148.732 Y137.123 E11.6942
G1 X150.000 Y137.061 E11.7604
G1 X151.268 Y137.123 E11.8266
G1 X152.411 Y137.292 E11.8869
G1 X153.758 Y137.619 E11.9591
G1 X155.394 Y138.207 E12.0498
G1 X155.445 Y138.116 E12.0552
G1 X157.702 Y139.420 E12.1911
G1 X157.620 Y139.564 E12.1997
G1 X158.210 Y139.999 E12.2379
G1 X159.149 Y140.851 E12.3040
G1 X160.003 Y141.793 E12.3703
G1 X160.759 Y142.812 E12.4365
G1 X161.411 Y143.901 E12.5027
G1 X161.954 Y145.048 E12.5688
G1 X162.381 Y146.245 E12.6351
G1 X162.691 Y147.476 E12.7013
G1 X162.855 Y148.587 E12.7598
G1 X162.940 Y149.601 E12.8129
G1 X162.940 Y150.341 E12.8514
G1 X162.925 Y150.341 E12.8522
G1 X162.874 Y151.295 E12.9020
G1 X162.691 Y152.525 E12.9669
G1 X162.381 Y153.756 E13.0330
G1 X161.954 Y154.952 E13.0993
G1 X161.411 Y156.099 E13.1654
G1 X160.759 Y157.189 E13.2316
G1 X160.003 Y158.208 E13.2978
G1 X159.149 Y159.149 E13.3640
G1 X158.208 Y160.003 E13.4303
G1 X157.624 Y160.440 E13.4683
G1 X157.701 Y160.575 E13.4764
G1 X155.441 Y161.880 E13.6125
G1 X155.392 Y161.796 E13.6175
G1 X153.756 Y162.382 E13.7081
G1 X152.524 Y162.691 E13.7744
G1 X151.270 Y162.877 E13.8405
G1 X149.887 Y162.935 E13.9126
G1 X148.732 Y162.878 E13.9729
G1 X147.589 Y162.709 E14.0332
G1 X146.241 Y162.382 E14.1055
G1 X144.607 Y161.796 E14.1960
G1 X144.557 Y161.884 E14.2012
G1 X142.298 Y160.580 E14.3372
G1 X142.380 Y160.436 E14.3459
G1 X141.790 Y160.001 E14.3841
G1 X140.850 Y159.149 E14.4502
G1 X139.997 Y158.208 E14.5164
G1 X139.241 Y157.189 E14.5826
G1 X138.589 Y156.099 E14.6488
G1 X138.046 Y154.952 E14.7150
G1 X137.619 Y153.756 E14.7812
G1 X137.309 Y152.525 E14.8474
G1 X137.129 Y151.305 E14.9117
G1 X137.068 Y151.305 E14.9148
G1 X137.062 Y148.695 E15.0509
G1 X137.127 Y148.695 E15.0543
G1 X137.309 Y147.476 E15.1186
G1 X137.619 Y146.245 E15.1847
G1 X138.046 Y145.048 E15.2510
G1 X138.589 Y143.901 E15.3172
G1 X139.241 Y142.812 E15.3833
G1 X139.997 Y141.793 E15.4495
G1 X140.851 Y140.851 E15.5158
G1 F2400 E15.0158
G0 F9000 X140.925 Y140.919
G0 X142.574 Y139.596
G0 X142.357 Y139.496
G0 X141.699 Y139.253
M204 P500.00
;TYPE:WALL-OUTER
;WIDTH:0.440
G1 F1500 E15.5158
G1 F900 X144.721 Y137.508 E15.6977
G1 X144.812 Y137.665 E15.7072
G1 X146.116 Y137.197 E15.7794
G1 X147.390 Y136.878 E15.8479
G1 X148.689 Y136.685 E15.9163
G1 X150.000 Y136.620 E15.9848
G1 X151.311 Y136.685 E16.0532
G1 X152.495 Y136.860 E16.1156
G1 X153.885 Y137.197 E16.1902
G1 X155.193 Y137.667 E16.2626
G1 X155.280 Y137.513 E16.2719
G1 X158.301 Y139.258 E16.4537
G1 X158.196 Y139.442 E16.4648
G1 X158.489 Y139.658 E16.4838
G1 X159.461 Y140.540 E16.5522
G1 X160.343 Y141.513 E16.6207
G1 X161.125 Y142.567 E16.6891
G1 X161.800 Y143.693 E16.7575
G1 X162.361 Y144.880 E16.8260
G1 X162.803 Y146.117 E16.8945
G1 X163.123 Y147.390 E16.9629
G1 X163.251 Y148.255 E17.0085
G1 X163.286 Y148.255 E17.0103
G1 X163.296 Y148.602 E17.0284
G1 X163.345 Y149.174 E17.0583
G1 X163.380 Y149.183 E17.0602
G1 X163.380 Y150.781 E17.1435
G1 X163.342 Y150.781 E17.1455
G1 X163.291 Y151.745 E17.1958
G1 X163.252 Y151.745 E17.1979
G1 X163.123 Y152.611 E17.2435
G1 X162.803 Y153.884 E17.3120
G1 X162.361 Y155.121 E17.3804
G1 X161.800 Y156.307 E17.4488
G1 X161.125 Y157.434 E17.5173
G1 X160.343 Y158.488 E17.5858
G1 X159.461 Y159.461 E17.6542
G1 X158.488 Y160.343 E17.7227
G1 X158.199 Y160.559 E17.7415
G1 X158.301 Y160.737 E17.7522
G1 X155.280 Y162.481 E17.9341
G1 X155.195 Y162.334 E17.9429
G1 X153.884 Y162.804 E18.0155
G1 X152.610 Y163.123 E18.0840
G1 X151.312 Y163.316 E18.1524
G1 X149.885 Y163.375 E18.2269
G1 X148.689 Y163.316 E18.2893
G1 X147.505 Y163.141 E18.3517
G1 X146.115 Y162.804 E18.4263
G1 X144.807 Y162.335 E18.4987
G1 X144.721 Y162.487 E18.5078
G1 X141.699 Y160.742 E18.6897
G1 X141.804 Y160.558 E18.7008
G1 X141.511 Y160.342 E18.7198
G1 X140.539 Y159.461 E18.7882
G1 X139.657 Y158.488 E18.8566
G1 X138.875 Y157.434 E18.9250
G1 X138.200 Y156.307 E18.9935
G1 X137.639 Y155.121 E19.0619
G1 X137.197 Y153.884 E19.1304
G1 X136.877 Y152.611 E19.1989
G1 X136.749 Y151.745 E19.2445
G1 X136.629 Y151.745 E19.2508
G1 X136.621 Y148.255 E19.4327
G1 X136.748 Y148.255 E19.4393
G1 X136.877 Y147.390 E19.4849
G1 X137.197 Y146.117 E19.5534
G1 X137.639 Y144.880 E19.6218
G1 X138.200 Y143.693 E19.6903
G1 X138.875 Y142.567 E19.7587
G1 X139.657 Y141.513 E19.8272
G1 X140.539 Y140.540 E19.8956
G1 X141.512 Y139.657 E19.9641
G1 X141.805 Y139.438 E19.9832
G1 X141.699 Y139.253 E19.9943
G1 F2400 E19.4943
G0 F9000 X142.357 Y139.496
G0 X147.944 Y148.149
G0 X148.032 Y148.195
M204 P1000.00
;TYPE:WALL-INNER
;WIDTH:0.440
G1 F1500 E19.9943
G1 F900 X147.603 Y148.853 E20.0353
G1 X147.365 Y149.590 E20.0756
G1 X147.340 Y150.134 E20.1040
G1 X147.455 Y150.816 E20.1401
G1 X148.043 Y151.839 E20.2016
G1 X149.496 Y152.615 E20.2875
G1 X150.430 Y152.629 E20.3362
G1 X151.192 Y152.395 E20.3777
G1 X152.290 Y151.372 E20.4560
G1 X152.594 Y150.630 E20.4978
G1 X152.645 Y149.624 E20.5503
G1 X152.404 Y148.875 E20.5913
G1 X151.983 Y148.214 E20.6322
G1 X151.345 Y147.705 E20.6747
G1 X150.298 Y147.344 E20.7325
G1 X149.561 Y147.383 E20.7710
G1 X148.828 Y147.603 E20.8109
G1 X148.032 Y148.195 E20.8626
G1 F2400 E20.3626
G0 F9000 X148.358 Y148.501
M204 P500.00
;TYPE:WALL-OUTER
;WIDTH:0.440
G1 F1500 E20.8626
G1 F900 X148.004 Y149.044 E20.8964
G1 X147.802 Y149.669 E20.9306
G1 X147.782 Y150.107 E20.9535
G1 X147.876 Y150.665 E20.9830
G1 X148.362 Y151.510 E21.0338
G1 X149.609 Y152.177 E21.1075
G1 X150.367 Y152.188 E21.1470
G1 X150.966 Y152.004 E21.1797
G1 X151.919 Y151.116 E21.2476
G1 X152.158 Y150.533 E21.2805
G1 X152.201 Y149.682 E21.3249
G1 X152.002 Y149.064 E21.3587
G1 X151.651 Y148.512 E21.3928
G1 X151.130 Y148.096 E21.4276
G1 X150.236 Y147.788 E21.4769
G1 X149.637 Y147.820 E21.5082
G1 X149.028 Y148.002 E21.5413
G1 X148.358 Y148.501 E21.5849
G1 F2400 E21.0849
G0 F9000 X147.907 Y148.206
G0 X139.613 Y157.433
M204 P1000.00
;TYPE:SOLID-FILL
;WIDTH:0.400
G1 F1500 E21.5849
G1 F900 X142.549 Y160.368 E21.7816
G0 F900 X142.578 Y160.397
G1 F900 X142.971 Y160.790 E21.8080
G0 F900 X144.309 Y161.562
G1 F900 X138.682 Y155.936 E22.1851
G0 F900 X138.179 Y154.867
G1 F900 X145.130 Y161.818 E22.6510
G0 F900 X146.013 Y162.135
G1 F900 X137.866 Y153.988 E23.1971
G0 F900 X137.636 Y153.192
G1 F900 X146.802 Y162.358 E23.8115
G0 F900 X147.549 Y162.540
G1 F900 X137.452 Y152.443 E24.4882
G0 F900 X137.354 Y151.779
G1 F900 X148.221 Y162.646 E25.2166
G0 F900 X148.870 Y162.730
G1 F900 X137.220 Y151.079 E25.9975
G0 F900 X137.219 Y150.513
G1 F900 X149.465 Y162.759 E26.8184
G0 F900 X150.045 Y162.773
G1 F900 X137.218 Y149.946 E27.6781
G0 F900 X137.217 Y149.379
G1 F900 X150.588 Y162.750 E28.5743
G0 F900 X151.131 Y162.727
G1 F900 X137.252 Y148.848 E29.5046
G0 F900 X137.332 Y148.363
G1 F900 X151.635 Y162.666 E30.4633
G0 F900 X152.127 Y162.592
G1 F900 X137.404 Y147.870 E31.4501
G0 F900 X137.489 Y147.388
G1 F900 X152.609 Y162.509 E32.4636
G0 F900 X153.061 Y162.395
G1 F900 X137.602 Y146.936 E33.4998
G0 F900 X137.716 Y146.484
G1 F900 X153.513 Y162.281 E34.5586
G0 F900 X153.945 Y162.148
G1 F900 X137.850 Y146.052 E35.6375
G0 F900 X137.999 Y145.636
